app/dist/common/images/foods-gate-trading.svg

<svg height="18" viewBox="0 0 18 18" width="18" xmlns="http://www.w3.org/2000/svg"><path d="m0 0h18v18h-18z" fill="#4f685b"/><path d="m4 5h5v.6h-4.4v2.8h4.1a3.52 3.52 0 0 1 1.61-2.7c.88-.56 1.88-.7 2.44-.7h1.25v.6h-1.25c-.48 0-1.36.13-2.11.6-.64.42-1.2 1.08-1.34 2.2h4.7v4.6h-1.51a4 4 0 0 1 -3.83-4h-4.06v4h-.6zm5.26 4c0 1.17.51 2 1.16 2.56a3.4 3.4 0 0 0 2.07.84h.9v-3.4h-4.12z" fill="#cba84e"/></svg>

<!-- by TradingView --><svg width="18" height="18" viewBox="0 0 18 18" xmlns="http://www.w3.org/2000/svg"><path fill="#4F685B" d="M0 0h18v18H0z"/><path d="M4 5h5v.6H4.6v2.8h4.1a3.52 3.52 0 0 1 1.61-2.7c.88-.56 1.88-.7 2.44-.7H14v.6h-1.25c-.48 0-1.36.13-2.11.6-.64.42-1.2 1.08-1.34 2.2H14V13h-1.51a4 4 0 0 1-3.83-4H4.6v4H4V5Zm5.26 4c0 1.17.51 2 1.16 2.56a3.4 3.4 0 0 0 2.07.84h.9V9H9.27Z" fill="#CBA84E"/></svg>
